!!!COM:	Du Fay, Guillaume
!!!CDT:	~1397/08/05/-1474/11/27
!!!OTL:	Ave regina celorum III
!!!AGN:	Motet
!!!SCT:	Duf2012
!!!SCA:	Duf2012
!!!voices:	4
**kern	**text	**kern	**text	**kern	**text	**kern	**text
*staff4	*staff4	*staff3	*staff3	*staff2	*staff2	*staff1	*staff1
*Ivox	*	*Ivox	*	*Ivox	*	*Ivox	*
*I"Bassus	*	*I"Tenor	*	*I"Contratenor	*	*I"Cantus	*
*I'B	*	*I'T	*	*I'Ct	*	*I'Cn	*
*>[A,B,C,D]	*>[A,B,C,D]	*>[A,B,C,D]	*>[A,B,C,D]	*>[A,B,C,D]	*>[A,B,C,D]	*>[A,B,C,D]	*>[A,B,C,D]
*>A	*>A	*>A	*>A	*>A	*>A	*>A	*>A
*clefF4	*	*clefGv2	*	*clefGv2	*	*clefG2	*
*k[]	*	*k[]	*	*k[]	*	*k[]	*
*M3/1	*	*M3/1	*	*M3/1	*	*M3/1	*
*met(O)	*	*met(O)	*	*met(O)	*	*met(O)	*
!!section: Ave regina celorum
!!!OMD: Ave regina celorum
=1-	=1-	=1-	=1-	=1-	=1-	=1-	=1-
0.r	.	0.r	.	0c	A-	0cc	A-
.	.	.	.	1c	.	2cc\	.
.	.	.	.	.	.	2a/	.
=2	=2	=2	=2	=2	=2	=2	=2
0.r	.	0.r	.	2d\	.	1b-	.
.	.	.	.	2e\	.	.	.
.	.	.	.	1.f	.	0a	.
.	.	.	.	2e\	.	.	.
=3	=3	=3	=3	=3	=3	=3	=3
0.r	.	0.r	.	1.g	.	2.b-i\	.
.	.	.	.	.	.	4g/	.
.	.	.	.	.	.	1g	.
.	.	.	.	2.e\	.	.	.
.	.	.	.	.	.	1g	.
.	.	.	.	4c\	.	.	.
.	.	.	.	2c\	.	.	.
=4	=4	=4	=4	=4	=4	=4	=4
0.r	.	0.r	.	2r	.	1a	.
.	.	.	.	2f\	.	.	.
.	.	.	.	2e\	.	2g/	.
.	.	.	.	2c\	.	1cc	.
.	.	.	.	1d	.	.	.
.	.	.	.	.	.	2b\	.
=5	=5	=5	=5	=5	=5	=5	=5
0.r	.	0.r	.	0c	-ve,	0cc	-ve,
.	.	.	.	1e	re-	1cc	re-
=6	=6	=6	=6	=6	=6	=6	=6
0.r	.	0.r	.	1f	-gi-	1dd	-gi-
.	.	.	.	1g	.	1.ee	.
.	.	.	.	[1c	-na	.	.
.	.	.	.	.	.	2dd\	.
=7	=7	=7	=7	=7	=7	=7	=7
0.r	.	0.r	.	1c]	.	1ee	-na
.	.	.	.	1B	ce-	1dd	ce-
.	.	.	.	1c	.	1ee	.
=8	=8	=8	=8	=8	=8	=8	=8
0.r	.	0.r	.	2r	.	1ff	-lo-
.	.	.	.	1d	-lo-	.	.
.	.	.	.	.	.	2dd\	.
.	.	.	.	2c\	.	2ee\	.
.	.	.	.	2A/	.	2cc\	.
.	.	.	.	2B\	.	[2dd\	.
=9	=9	=9	=9	=9	=9	=9	=9
0.r	.	0.r	.	2G/	.	4dd\]	.
.	.	.	.	.	.	4cc\	.
.	.	.	.	1c	.	2a/	.
.	.	.	.	.	.	2g/	.
.	.	.	.	2e\	.	1cc	.
.	.	.	.	1d	.	.	.
.	.	.	.	.	.	2b\	.
=10	=10	=10	=10	=10	=10	=10	=10
0.r	.	0.r	.	0c	-rum.	0cc	-rum.
.	.	.	.	1r	.	1r	.
=11	=11	=11	=11	=11	=11	=11	=11
1C	A-	0.r	.	1c	A-	0.r	.
2.D\	.	.	.	2B-\	.	.	.
.	.	.	.	1A	.	.	.
4E\	.	.	.	.	.	.	.
2F\	.	.	.	.	.	.	.
2G\	.	.	.	[2B-i\	.	.	.
=12	=12	=12	=12	=12	=12	=12	=12
2.E\	.	0.r	.	4B-/]	.	0.r	.
.	.	.	.	4G/	.	.	.
.	.	.	.	2G/	.	.	.
4C/	.	.	.	.	.	.	.
2C/	.	.	.	2A/	.	.	.
2E\	.	.	.	4G/	.	.	.
.	.	.	.	4c/	.	.	.
1D	.	.	.	4d\	.	.	.
.	.	.	.	2Bni\	.	.	.
.	.	.	.	4A/	.	.	.
=13	=13	=13	=13	=13	=13	=13	=13
1.C	-ve,	0.r	.	1c	-ve,	0.r	.
.	.	.	.	1r	.	.	.
1F	Do-	.	.	.	.	.	.
.	.	.	.	1c	Do-	.	.
2E\	.	.	.	.	.	.	.
=14	=14	=14	=14	=14	=14	=14	=14
1F	-mi-	0.r	.	1d	-mi-	0.r	.
1G	.	.	.	1e	.	.	.
1C	-na	.	.	1e	-na	.	.
=15	=15	=15	=15	=15	=15	=15	=15
2r	.	0.r	.	1e	an-	0.r	.
2C/	an-	.	.	.	.	.	.
2BB/	-ge-	.	.	2d\	-ge	.	.
2C/	.	.	.	2e\	.	.	.
1D	.	.	.	1f	.	.	.
=16	=16	=16	=16	=16	=16	=16	=16
1C	-lo-	0.r	.	2g\	lo-	0.r	.
.	.	.	.	2.e\	.	.	.
2r	.	.	.	.	.	.	.
.	.	.	.	4c\	.	.	.
2F\	.	.	.	2d\	.	.	.
2G\	.	.	.	2B\	.	.	.
2A\	.	.	.	2c\	.	.	.
=17	=17	=17	=17	=17	=17	=17	=17
1F	.	0.r	.	2r	.	0.r	.
.	.	.	.	2f\	.	.	.
2G\	.	.	.	4d\	.	.	.
.	.	.	.	2e\	.	.	.
1A	.	.	.	.	.	.	.
.	.	.	.	4f\	.	.	.
.	.	.	.	4e\	.	.	.
.	.	.	.	4c\	.	.	.
2B\	.	.	.	2d\	.	.	.
=18	=18	=18	=18	=18	=18	=18	=18
1c	.	0.r	.	2e\	.	0.r	.
.	.	.	.	1c	.	.	.
2A\	.	.	.	.	.	.	.
2B\	.	.	.	2d\	.	.	.
1c	.	.	.	4c\	.	.	.
.	.	.	.	4B\	.	.	.
.	.	.	.	2A/	.	.	.
=19	=19	=19	=19	=19	=19	=19	=19
1C	.	0.r	.	2G/	.	0.r	.
.	.	.	.	2.g\	.	.	.
2BB/	.	.	.	.	.	.	.
.	.	.	.	4f\	.	.	.
1C	.	.	.	4e\	.	.	.
.	.	.	.	4d\	.	.	.
.	.	.	.	2e\	.	.	.
2D\	.	.	.	2f\	.	.	.
=20	=20	=20	=20	=20	=20	=20	=20
2C/	.	0.r	.	2e\	.	0.r	.
1F	.	.	.	2.d\	.	.	.
.	.	.	.	4c\	.	.	.
2E\	.	.	.	1c	.	.	.
1D	.	.	.	.	.	.	.
.	.	.	.	2B\	.	.	.
=21	=21	=21	=21	=21	=21	=21	=21
0.C	-rum.	0.c	A-	2c\	-rum.	1r	.
.	.	.	.	2r	.	.	.
.	.	.	.	0g	Mi-	0ee-	Mi-
=22	=22	=22	=22	=22	=22	=22	=22
1G	Mi-	1B-	.	1g	-se-	1dd	.
2A\	.	0A	.	2e\	-re-	0cc	-se-
2F\	.	.	.	2f\	.	.	.
2.c\	-se-	.	.	1e	.	.	.
4B\	.	.	.	.	.	.	.
=23	=23	=23	=23	=23	=23	=23	=23
1G	-re-	1B-i	.	1.d	-re	1.dd	-re-
2.B\	.	0G	.	.	.	.	.
.	.	.	.	1g	.	2b\	.
4c\	.	.	.	.	.	.	.
1d	-re	.	.	.	.	1b	-re
.	.	.	.	2g\	.	.	.
=24	=24	=24	=24	=24	=24	=24	=24
1c	tu-	2A/	.	1e	tu-	1cc	tu-
.	.	2Bni\	.	.	.	.	.
0F	-i	0c	-ve,	1f	.	2a/	.
.	.	.	.	.	.	2.a/	-i
.	.	.	.	1f	-i	.	.
.	.	.	.	.	.	4g/	.
.	.	.	.	.	.	2f/	.
=25	=25	=25	=25	=25	=25	=25	=25
0C	la-	1r	.	1g	la-	2e/	la-
.	.	.	.	.	.	2f/	.
.	.	0c	re-	1G	-ben-	2g/	.
.	.	.	.	.	.	1e	-ben-
1C	-ben-	.	.	1A	.	.	.
.	.	.	.	.	.	2f/	.
=26	=26	=26	=26	=26	=26	=26	=26
1BB	-tis	1d	-gi-	1B	-tis	1d	-tis
0C	.	1e	.	1G	.	1c	.
.	.	1e	-na	2g\	D&uuml;	2r	.
.	.	.	.	2e\	.	2g/	D&uuml;
=27	=27	=27	=27	=27	=27	=27	=27
0.r	.	1d	ce-	1f	Fa-	2a/	Fa-
.	.	.	.	.	.	2b\	.
.	.	2e\	.	2g\	.	1cc	.
.	.	1f	.	2.a\	.	.	.
.	.	.	.	.	.	2dd\	.
.	.	.	.	4g\	.	.	.
.	.	2g\	.	4e\	.	[2ee\	.
.	.	.	.	4f\	.	.	.
=28	=28	=28	=28	=28	=28	=28	=28
0.r	.	1e	-lo-	1g	.	4ee\]	.
.	.	.	.	.	.	4dd\	.
.	.	.	.	.	.	4b\	.
.	.	.	.	.	.	4cc\	.
.	.	0d	.	1a	.	2dd\	.
.	.	.	.	.	.	2b\	.
.	.	.	.	2.f\	.	2.b\	.
.	.	.	.	4e\	.	4a/	.
=29	=29	=29	=29	=29	=29	=29	=29
0.C	pec-	0.c	-rum.	1g	-y,	0cc	-y,
.	.	.	.	1r	.	.	.
.	.	.	.	2e\	pec-	1r	.
.	.	.	.	2f\	.	.	.
=30	=30	=30	=30	=30	=30	=30	=30
1.c	-ca-	1r	.	0g	-ca-	0e	pec-
.	.	1r	.	.	.	.	.
2B\	.	.	.	.	.	.	.
1A	.	1c	A-	1a	.	2e/	-ca-
.	.	.	.	.	.	2f/	.
=31	=31	=31	=31	=31	=31	=31	=31
1G	-to-	1B-	.	2d\	-to-	1g	-to-
.	.	.	.	2e\	.	.	.
0F	.	0A	.	1.f	.	2a/	.
.	.	.	.	.	.	1cc	.
.	.	.	.	2d\	.	4b/	.
.	.	.	.	.	.	4a/	.
=32	=32	=32	=32	=32	=32	=32	=32
1G	-rum	2B-i\	.	1d	-rum	1g	-rum
.	.	2G/	.	.	.	.	.
0C	.	0G	.	2c\	.	1e	.
.	.	.	.	2.g\	ne	.	.
.	.	.	.	.	.	1c	.
.	.	.	.	4f\	.	.	.
.	.	.	.	2e\	.	.	.
=33	=33	=33	=33	=33	=33	=33	=33
2.F\	ne	1.A	.	2d\	ru-	2r	.
.	.	.	.	1c	.	1cc	ne
4E\	.	.	.	.	.	.	.
2F\	.	.	.	.	.	.	.
2A\	.	2c\	.	2f\	.	2a/	.
1G	ru-	2Bni\	.	2d\	.	2.b\	ru-
.	.	2A/	.	2e\	.	.	.
.	.	.	.	.	.	4cc\	.
=34	=34	=34	=34	=34	=34	=34	=34
0F	-at	0c	-ve,	2.f\	-at	1a	-at
.	.	.	.	4g\	.	.	.
.	.	.	.	1a	.	1f	.
2F\	in	[1c	do-	1f	.	2a/	in
2G\	.	.	.	.	.	2b\	.
=35	=35	=35	=35	=35	=35	=35	=35
1A	i-	1c]	.	1e	.	1cc	i-
2G\	.	0d	-mi-	1r	.	2b-i\	.
2A\	.	.	.	.	.	1a	.
1B-	.	.	.	1r	.	.	.
.	.	.	.	.	.	2g/	.
=36	=36	=36	=36	=36	=36	=36	=36
2A\	.	2e\	.	0.r	.	2a/	.
1d	.	2f\	.	.	.	2.b-\	.
.	.	2g\	.	.	.	.	.
.	.	.	.	.	.	4a/	.
2c\	.	1e	.	.	.	1a	.
1B-i	.	.	.	.	.	.	.
.	.	2d\	.	.	.	2g/	.
=37	=37	=37	=37	=37	=37	=37	=37
1.A	-gnem	0.e	-na	0c	fer-	1a	-gnem
.	.	.	.	.	.	1r	.
2Bni\	.	.	.	.	.	.	.
1c	.	.	.	1A	.	1r	.
=38	=38	=38	=38	=38	=38	=38	=38
1G	fer-	1d	an-	1B	.	0g	fer-
1C	.	1e	-ge-	1c	.	.	.
2r	.	2.f\	-lo-	1A	.	1a	.
[2D\	-vo-	.	.	.	.	.	.
.	.	4e\	.	.	.	.	.
=39	=39	=39	=39	=39	=39	=39	=39
2D\]	.	2f\	.	2d\	.	2b\	.
1C	.	2g\	.	2e\	.	1cc	.
.	.	2e\	.	1c	-vo-	.	.
1F	.	2c\	.	.	.	2cc\	-vo-
.	.	1d	.	2f\	.	2a/	.
[2G\	.	.	.	2d\	.	[2b\	.
=40	=40	=40	=40	=40	=40	=40	=40
2G\]	.	2B\	.	1e	.	4b\]	.
.	.	.	.	.	.	4cc\	.
2A\	.	2.c\	.	.	.	1a	.
1F	.	.	.	1f	.	.	.
.	.	4B\	.	.	.	.	.
.	.	2A/	.	.	.	2.cc\	.
1C	-rum,	2G/	-rum,	1g	.	.	.
.	.	.	.	.	.	4dd\	.
.	.	[2c\	an-	.	.	2ee\	.
=41	=41	=41	=41	=41	=41	=41	=41
2r	.	4c\]	.	1e	-rum,	1cc	-rum,
.	.	4B\	.	.	.	.	.
2C/	fer-	2c\	.	.	.	.	.
2BB/	.	2d\	-ge-	2d\	fer-	2ff\	fer-
2C/	.	2e\	.	2c\	.	2ee\	.
2D\	.	2f\	.	4B/	.	4dd\	.
.	.	.	.	4A/	.	4cc\	.
2E\	.	[2g\	-lo-	[2G/	.	2b\	.
=42	=42	=42	=42	=42	=42	=42	=42
1C	-vo-	2g\]	.	2G/]	.	2.ee\	-vo-
.	.	2c\	.	1g	-vo-	.	.
.	.	.	.	.	.	4cc\	.
2G\	.	2B\	.	.	.	2dd\	.
2A\	.	2c\	.	2f\	.	2.cc\	.
1G	.	1d	.	1g	.	.	.
.	.	.	.	.	.	4b\	.
.	.	.	.	.	.	4b/	.
.	.	.	.	.	.	4a/	.
=43	=43	=43	=43	=43	=43	=43	=43
[0.Cl	-rum.	[0.cl	-rum.	2e\	.	[0.ccl	-rum.
.	.	.	.	2f\	.	.	.
.	.	.	.	1g	.	.	.
.	.	.	.	2.e\	.	.	.
.	.	.	.	4c\	.	.	.
=44	=44	=44	=44	=44	=44	=44	=44
0.C]	.	0.c]	.	0.cl	-rum.	0.cc]	.
!!LO:LB:i:g=z
=45||	=45||	=45||	=45||	=45||	=45||	=45||	=45||
*>B	*>B	*>B	*>B	*>B	*>B	*>B	*>B
*clefF4	*	*clefGv2	*	*clefGv2	*	*clefG2	*
*k[]	*	*k[]	*	*k[]	*	*k[]	*
*M3/1	*	*M3/1	*	*M3/1	*	*M3/1	*
*met(O)	*	*met(O)	*	*met(O)	*	*met(O)	*
!!section: Salve, radix sancta
!!!OMD: Salve, radix sancta
0.r	.	0.r	.	0c	Sal-	0cc	Sal-
.	.	.	.	1B	.	1dd	.
=46	=46	=46	=46	=46	=46	=46	=46
0.r	.	0.r	.	1c	.	1ee	.
.	.	.	.	1d	.	1ff	.
.	.	.	.	2f\	.	2.dd\	.
.	.	.	.	2e\	.	.	.
.	.	.	.	.	.	4cc\	.
=47	=47	=47	=47	=47	=47	=47	=47
0C	Sal-	0c	Sal-	1c	-ve,	0ee	-ve,
.	.	.	.	1A	.	.	.
1BB	.	1d	.	1B	.	1dd	.
=48	=48	=48	=48	=48	=48	=48	=48
1C	.	1e	.	1G	ra-	2cc\	ra-
.	.	.	.	.	.	2b\	.
1D	.	1f	.	2.d\	.	1.a	.
.	.	.	.	4c\	.	.	.
2.F\	.	2.d\	.	2A/	.	.	.
.	.	.	.	2B\	.	2g/	.
4E\	.	4c\	.	.	.	.	.
=49	=49	=49	=49	=49	=49	=49	=49
0.C	-ve,	0.e	-ve,	1c	-dix	1g	-dix
.	.	.	.	1r	.	0g	san-
.	.	.	.	2c\	san	.	.
.	.	.	.	2d\	.	.	.
=50	=50	=50	=50	=50	=50	=50	=50
1r	.	0g	ra-	0e	.	1c	-cta,
1C	san-	.	.	.	.	2r	.
.	.	.	.	.	.	2cc\	ex
1D	.	1f	.	1f	.	2a/	.
.	.	.	.	.	.	2b\	.
=51	=51	=51	=51	=51	=51	=51	=51
1C	-cta,	1e	-dix	1g	cta,	1cc	qua
1F	ex	1d	.	2a\	ex	1dd	.
.	.	.	.	2f\	.	.	.
1E	qua	1c	.	1g	qua	1ee	.
=52	=52	=52	=52	=52	=52	=52	=52
1D	mun-	2d\	san-	1f	mun-	2ff\	mun-
.	.	2B\	.	.	.	2dd\	.
1C	.	2c\	.	2e\	.	2ee\	.
.	.	2e\	.	1a	.	1cc	.
1G	.	1d	.	.	.	.	.
.	.	.	.	2g\	.	2b\	.
=53	=53	=53	=53	=53	=53	=53	=53
0.C	-do	0.c	-cta,	2e\	-do	0cc	-do
.	.	.	.	2f\	.	.	.
.	.	.	.	1g	.	.	.
.	.	.	.	1r	.	1r	.
=54	=54	=54	=54	=54	=54	=54	=54
0.F	lux	0.r	.	0f	lux	0cc	lux
.	.	.	.	1f	est	1a	est
=55	=55	=55	=55	=55	=55	=55	=55
1G	est	0.r	.	1.d	or-	1b-	or-
0F	or-	.	.	.	.	1.a	.
.	.	.	.	2c\	.	.	.
.	.	.	.	1d	.	.	.
.	.	.	.	.	.	2g/	.
=56	=56	=56	=56	=56	=56	=56	=56
0.E	.	0.r	.	1.e	.	[0.g	-ta.
.	.	.	.	2d\	.	.	.
.	.	.	.	1B	.	.	.
=57	=57	=57	=57	=57	=57	=57	=57
0.C	-ta.	0.r	.	1.c	-ta.	1g]	.
.	.	.	.	.	.	0e	.
.	.	.	.	2B\	.	.	.
.	.	.	.	1G	.	.	.
=58	=58	=58	=58	=58	=58	=58	=58
1r	.	0.r	.	1.c	Mi-	0g	Mi-
1r	.	.	.	.	.	.	.
.	.	.	.	2d\	.	.	.
2.c\	Mi-	.	.	1e	-se-	1g	-se-
4B\	.	.	.	.	.	.	.
=59	=59	=59	=59	=59	=59	=59	=59
2.A\	-se-	0.r	.	2f\	-re-	2a/	-re-
.	.	.	.	2g\	.	2b\	.
4G\	.	.	.	.	.	.	.
1.F	-re-	.	.	2c\	.	1.cc	.
.	.	.	.	2.f\	.	.	.
.	.	.	.	4e\	.	.	.
2G\	-re,	.	.	2d\	-re,	2b\	-re,
=60	=60	=60	=60	=60	=60	=60	=60
2A\	mi-	0.r	.	1c	mi-	2cc\	mi-
2F\	-se-	.	.	.	.	2dd\	-se-
1c	-re-	.	.	1A	-se-	1ee	-re-
1G	-re,	.	.	1B	-re-	1dd	.
=61	=61	=61	=61	=61	=61	=61	=61
2r	.	0.r	.	0c	-re,	2cc\	-re,
1A	ge-	.	.	.	.	2r	.
.	.	.	.	.	.	1cc	ge-
1F	.	.	.	.	.	.	.
.	.	.	.	1r	.	1dd	-ni-
2G\	-ni-	.	.	.	.	.	.
=62	=62	=62	=62	=62	=62	=62	=62
1E	-trix	0.r	.	1c	ge-	1ee	-trix
1D	do-	.	.	1d	-ni-	1ff	do-
1C	.	.	.	1e	-trix	2ee\	.
.	.	.	.	.	.	2cc\	.
=63	=63	=63	=63	=63	=63	=63	=63
1BB	.	0.r	.	2f\	do-	1dd	.
.	.	.	.	2g\	.	.	.
1C	.	.	.	2e\	.	2cc\	.
.	.	.	.	2c\	.	1cc	-mi-
1G	-mi-	.	.	1d	-mi-	.	.
.	.	.	.	.	.	2b\	.
=64	=64	=64	=64	=64	=64	=64	=64
[0.C	-ni,	0.r	.	0c	-ni,	0.cc	-ni,
.	.	.	.	2e\	ut	.	.
.	.	.	.	2f\	.	.	.
=65	=65	=65	=65	=65	=65	=65	=65
0.C]	.	0.c	ex	1g	.	1r	.
.	.	.	.	1.e	.	2.cc\	ut
.	.	.	.	.	.	4b\	.
.	.	.	.	.	.	4a/	.
.	.	.	.	.	.	4g/	.
.	.	.	.	2c\	.	[2g/	.
=66	=66	=66	=66	=66	=66	=66	=66
0.r	.	1A	qua	1c	pa-	2g/]	.
.	.	.	.	.	.	2f/	.
.	.	2G/	.	1.d	.	2g/	pa-
.	.	1B-	.	.	.	4e/	.
.	.	.	.	.	.	4d/	.
.	.	.	.	.	.	2g/	.
.	.	2c\	.	2e\	.	2a/	.
=67	=67	=67	=67	=67	=67	=67	=67
0.r	.	1A	.	1c	-te-	2.f#i/	-te-
.	.	.	.	.	.	4e/	.
.	.	0G	.	0d	-ant	0g	-ant
=68	=68	=68	=68	=68	=68	=68	=68
1E	por-	1G	mun-	0.r	.	1b	por-
1F	.	1A	.	.	.	2a/	.
.	.	.	.	.	.	2cc\	.
1G	.	1Bni	.	.	.	2b\	.
.	.	.	.	.	.	[2g/	.
=69	=69	=69	=69	=69	=69	=69	=69
2C/	.	2c\	.	0.r	.	2g/]	.
2F\	.	2A/	.	.	.	2a/	.
2.E\	.	2B\	.	.	.	2g/	.
.	.	2c\	.	.	.	2e/	.
8D/L	.	.	.	.	.	.	.
8C/J	.	.	.	.	.	.	.
1BB	.	1d	.	.	.	2f/	.
.	.	.	.	.	.	2g/	.
=70	=70	=70	=70	=70	=70	=70	=70
1C	-te	0c	-do	1g	por-	1e	-te
2F\	ce-	.	.	2a\	.	1r	.
2E\	.	.	.	2g\	.	.	.
1A	.	1c	lux	2.e\	-te	1cc	ce-
.	.	.	.	4f\	.	.	.
=71	=71	=71	=71	=71	=71	=71	=71
2G\	.	2.d\	est	2g\	ce-	2b\	.
1F	.	.	.	2a\	.	1a	.
.	.	4c\	.	.	.	.	.
.	.	2d\	.	2f\	.	.	.
2E\	.	2.e\	.	2.g\	.	2g/	.
1C	.	.	.	.	.	2.cc\	.
.	.	4d\	.	4f\	.	.	.
.	.	2e\	.	2e\	.	.	.
.	.	.	.	.	.	4b\	.
=72	=72	=72	=72	=72	=72	=72	=72
2D\	.	2f\	or-	2d\	.	2a/	.
2E\	.	2g\	.	2B\	.	1g	.
1C	.	2.e\	.	1c	-li	.	.
.	.	.	.	.	.	2e/	.
.	.	4c\	.	.	.	.	.
2BB/	.	2d\	.	2r	.	2f/	.
2C/	.	[2c\	.	[2g\	de	2e/	.
=73	=73	=73	=73	=73	=73	=73	=73
1G	.	2c\]	.	2g\]	.	1d	.
.	.	2B\	.	2g\	bi-	.	.
1C	-li	1c	-ta.	1e	-li,	2c/	-li
.	.	.	.	.	.	2r	.
2r	.	1r	.	1c	.	2g/	de-
2F\	de-	.	.	.	.	2a/	.
=74	=74	=74	=74	=74	=74	=74	=74
2.E\	.	2G/	(de-	0.r	.	2b\	.
.	.	2A/	.	.	.	2cc\	.
4F\	.	.	.	.	.	.	.
2D\	.	2B\	.	.	.	2dd\	.
2C/	.	2c\	.	.	.	2ee\	.
2r	.	2d\	.	.	.	2ff\	.
2c\	.	2e\	.	.	.	4ee\	.
.	.	.	.	.	.	4cc\	.
=75	=75	=75	=75	=75	=75	=75	=75
2B\	.	2f\	.	1r	.	1dd	.
2G\	.	2.g\	.	.	.	.	.
1c	.	.	.	1g	de-	2ee\	.
.	.	4f\	.	.	.	.	.
.	.	2e\	.	.	.	1cc	-bi-
1G	-bi-	1d	-bi-	1g	-bi-	.	.
.	.	.	.	.	.	2b\	.
=76	=76	=76	=76	=76	=76	=76	=76
0.Cl	-li.	0.cl	-li).	0.gl	-li.	0.ccl	-li.
!!LO:LB:i:g=z
=77||	=77||	=77||	=77||	=77||	=77||	=77||	=77||
*>C	*>C	*>C	*>C	*>C	*>C	*>C	*>C
*clefF4	*	*clefGv2	*	*clefGv2	*	*clefG2	*
*k[]	*	*k[]	*	*k[]	*	*k[]	*
*M2/1	*	*M2/1	*	*M2/1	*	*M2/1	*
*met(C|)	*	*met(C|)	*	*met(C|)	*	*met(C|)	*
!!section: Gaude gloriosa
!!!OMD: Gaude gloriosa
!!LO:TX:X=-40:Z=8:t=[Recte&colon; C mensuration]
1.C	Gau-	0r	.	0r	.	[0c	Gau-
2D\	.	.	.	.	.	.	.
=78.	=78	=78.	=78	=78.	=78	=78.	=78
1E	.	0r	.	0r	.	1c]	.
1F	.	.	.	.	.	1d	.
=79	=79	=79	=79	=79	=79	=79	=79
2E\	.	0r	.	0r	.	0e	.
1G	.	.	.	.	.	.	.
2F\	.	.	.	.	.	.	.
=80.	=80	=80.	=80	=80.	=80	=80.	=80
0D	.	0r	.	0r	.	0f	.
=81	=81	=81	=81	=81	=81	=81	=81
[0C	-de,	[0c	Gau-	0r	.	[0g	-de,
=82.	=82	=82.	=82	=82.	=82	=82.	=82
0C]	.	0c]	.	0r	.	1g]	.
.	.	.	.	.	.	[1cc	glo-
=83	=83	=83	=83	=83	=83	=83	=83
0c	glo-	0e	-de,	0r	.	1cc]	.
.	.	.	.	.	.	1b	-ri-
=84.	=84	=84.	=84	=84.	=84	=84.	=84
0d	-ri-	0f	.	0r	.	0a	-o-
=85	=85	=85	=85	=85	=85	=85	=85
[0G	-o-	[0g	.	0r	.	0g	-sa,
=86.	=86	=86.	=86	=86.	=86	=86.	=86
0G]	.	0g]	.	0r	.	1r	.
.	.	.	.	.	.	1b	su-
=87	=87	=87	=87	=87	=87	=87	=87
1.A	-sa,	0f	glo-	0r	.	1cc	-per
.	.	.	.	.	.	[1a	om-
2B\	.	.	.	.	.	.	.
=88.	=88	=88.	=88	=88.	=88	=88.	=88
1c	.	[0e	.	0r	.	2a/]	.
.	.	.	.	.	.	2g/	.
1C	su-	.	.	.	.	[1g	-nes
=89	=89	=89	=89	=89	=89	=89	=89
1.E	-per	0e]	.	0r	.	1g]	.
.	.	.	.	.	.	1cc	spe-
2F\	.	.	.	.	.	.	.
=90.	=90	=90.	=90	=90.	=90	=90.	=90
1G	om-	0d	-ri-	0r	.	1b	-ci-
1B	-nes	.	.	.	.	1dd	.
=91	=91	=91	=91	=91	=91	=91	=91
1A	spe-	1c	.	0r	.	1ee	-o-
1c	-ci-	1e	.	.	.	[1cc	.
=92.	=92	=92.	=92	=92.	=92	=92.	=92
0G	-o-	0d	-o-	0r	.	2cc\]	.
.	.	.	.	.	.	1b	.
.	.	.	.	.	.	2a/	.
=93	=93	=93	=93	=93	=93	=93	=93
[0C	-sa.	[0c	-sa,	0r	.	0cc	-sa.
=94.	=94	=94.	=94	=94.	=94	=94.	=94
0C]	.	0c]	.	0r	.	0r	.
=95	=95	=95	=95	=95	=95	=95	=95
0c	Mi-	0r	.	0r	.	0ee-	Mi-
=96.	=96	=96.	=96	=96.	=96	=96.	=96
0B	-se-	0r	.	0r	.	0dd	-se-
=97	=97	=97	=97	=97	=97	=97	=97
0c	-re-	0r	.	0e-	Mi-	0cc	-re-
=98.	=98	=98.	=98	=98.	=98	=98.	=98
0G	-re,	0r	.	0d	-se-	0b	-re,
=99	=99	=99	=99	=99	=99	=99	=99
0A-	mi-	0r	.	0c	-re-	0cc	mi-
=100.	=100	=100.	=100	=100.	=100	=100.	=100
0G	-se-	0r	.	0B	-re,	0dd	-se-
=101	=101	=101	=101	=101	=101	=101	=101
0E-	-re-	0r	.	0c	mi-	0g	-re-
=102.	=102	=102.	=102	=102.	=102	=102.	=102
0D	-re,	0r	.	0d	-se-	0f#i	-re
=103	=103	=103	=103	=103	=103	=103	=103
3%2.E-iV	su-	0r	.	0G	-re-	0b-	sup-
3F\	.	.	.	.	.	.	.
3%2GZ	.	.	.	.	.	.	.
=104.	=104	=104.	=104	=104.	=104	=104.	=104
0D	-pli-	0r	.	0F#i	-re	0a	.
=105	=105	=105	=105	=105	=105	=105	=105
0G	-can-	0r	.	0B-i	sup-	1g	-pli-
.	.	.	.	.	.	[1g	-can-
=106.	=106	=106.	=106	=106.	=106	=106.	=106
0D	-ti,	0r	.	0A	-pli-	1g]	.
.	.	.	.	.	.	1f#i	.
=107	=107	=107	=107	=107	=107	=107	=107
1r	.	0r	.	0G	-can-	0g	-ti,
[1G	sup-	.	.	.	.	.	.
=108.	=108	=108.	=108	=108.	=108	=108.	=108
1G]	.	0r	.	1r	.	0b-	sup-
1G	-pli-	.	.	[1d	.	.	.
=109	=109	=109	=109	=109	=109	=109	=109
2F\	-can-	0r	.	1d]	.	1a	-pli-
2E\	.	.	.	.	.	.	.
[1C	.	.	.	[1e-i	.	[1g	-can-
=110.	=110	=110.	=110	=110.	=110	=110.	=110
2C/]	.	0r	.	1e-]	.	1g]	.
1.BB	.	.	.	.	.	.	.
.	.	.	.	1d	.	1fni	.
=111	=111	=111	=111	=111	=111	=111	=111
1C	-ti	0r	.	0c	-ti	0e-i	-ti
2.E-i\	.	.	.	.	.	.	.
4F\	.	.	.	.	.	.	.
=112.	=112	=112.	=112	=112.	=112	=112.	=112
[0G	D&uuml;	0r	.	[0B	D&uuml;	[0d	D&uuml;
=113	=113	=113	=113	=113	=113	=113	=113
0G]	.	0r	.	0B]	.	0d]	.
=114.	=114	=114.	=114	=114.	=114	=114.	=114
!LO:TX:Z=10:t=[Ms.&colon; dotted long]	!	!	!	!	!	!	!
0C	Fa-	0r	.	1.c	Fa-	[0e-i	Fa-
.	.	.	.	2B\	.	.	.
=115	=115	=115	=115	=115	=115	=115	=115
[0C	-y.	0r	.	[0G	-y.	1e-yi]	.
.	.	.	.	.	.	1c	.
=116.	=116	=116.	=116	=116.	=116	=116.	=116
0C]	.	0r	.	0G]	.	0c	-y.
=117	=117	=117	=117	=117	=117	=117	=117
[0F	Sit-	0c	su-	1.A	Sit-	1r	.
.	.	.	.	.	.	[1cc	Sit-
.	.	.	.	2B\	.	.	.
=118.	=118	=118.	=118	=118.	=118	=118.	=118
0F]	.	0A	-per	1c	.	2cc\]	.
.	.	.	.	.	.	2b\	.
.	.	.	.	[1d	.	1a	.
=119	=119	=119	=119	=119	=119	=119	=119
1G	.	1B	om-	1d]	.	0g	.
1E	.	1c	.	1e	.	.	.
=120.	=120	=120.	=120	=120.	=120	=120.	=120
0F	-que	0A	.	[0c	-que	0f	-que
=121	=121	=121	=121	=121	=121	=121	=121
0C	in	0G	-nes,	0c]	.	1g	in
.	.	.	.	.	.	[1e	con-
=122.	=122	=122.	=122	=122.	=122	=122.	=122
0E	con-	1r	.	1B	in	1e]	.
.	.	1G	om-	1c	con-	1g	.
=123	=123	=123	=123	=123	=123	=123	=123
0D	-spe-	1A	.	0d	-spe-	0f	-spe-
.	.	1B	.	.	.	.	.
=124.	=124	=124.	=124	=124.	=124	=124.	=124
*	*	*	*	*	*	*^	*
1.C	-ctu	1.c	.	[0G	-ctu	0e\	0g/	-ctu
*	*	*	*	*	*	*v	*v	*
2D\	.	2B\	.	.	.	.	.
=125	=125	=125	=125	=125	=125	=125	=125
1E	.	1c	.	1G]	.	0r	.
1F	De-	[1d	.	1A	De	.	.
=126.	=126	=126.	=126	=126.	=126	=126.	=126
1G	.	2d\]	.	1B	.	0r	.
.	.	2c\	.	.	.	.	.
1E	.	[1c	.	[1G	.	.	.
=127	=127	=127	=127	=127	=127	=127	=127
0D	.	1c]	.	1G]	.	0r	.
.	.	1B	.	1F	.	.	.
=128.	=128	=128.	=128	=128.	=128	=128.	=128
[0C	-i	[0c	-nes	0G	i	1.e	mors
.	.	.	.	.	.	2f/	.
=129	=129	=129	=129	=129	=129	=129	=129
0C]	.	0c]	.	1r	.	1g	.
.	.	.	.	1g	mors	[1cc	e-
=130.	=130	=130.	=130	=130.	=130	=130.	=130
1F	mors	0r	.	1a	e-	1cc]	.
1G	.	.	.	1g	.	1b	.
=131	=131	=131	=131	=131	=131	=131	=131
0A	.	0c	spe-	1e	.	0cc	-ius
.	.	.	.	1f	.	.	.
=132.	=132	=132.	=132	=132.	=132	=132.	=132
[0G	e-	0d	-ci-	[0g	-ius	[0b	spe-
=133	=133	=133	=133	=133	=133	=133	=133
0G]	.	0e	.	0g]	.	0b]	.
=134.	=134	=134.	=134	=134.	=134	=134.	=134
0F	-ius	0f	-o-	0c	spe-	0a	-ci-
=135	=135	=135	=135	=135	=135	=135	=135
1r	.	0e	.	0c	-ci-	0g	.
1C	spe-	.	.	.	.	.	.
=136.	=136	=136.	=136	=136.	=136	=136.	=136
1.D	-ci-	0d	.	[0A	-o-	1f	-o-
.	.	.	.	.	.	[1a	.
2E\	.	.	.	.	.	.	.
=137	=137	=137	=137	=137	=137	=137	=137
[0F	-o-	[0c;l	-sa.	0A_	.	2a/]	.
.	.	.	.	.	.	2b\	.
.	.	.	.	.	.	1cc	.
=138.	=138	=138.	=138	=138.	=138	=138.	=138
0F]	.	0c_	.	0A]	.	2b\	.
.	.	.	.	.	.	2.a/	.
.	.	.	.	.	.	4g/	.
.	.	.	.	.	.	2f/	.
=139	=139	=139	=139	=139	=139	=139	=139
0C;l	-sa.	0c]	.	0G;l	-sa.	0e;l	-sa.
!!LO:LB:i:g=z
=140||	=140||	=140||	=140||	=140||	=140||	=140||	=140||
*>D	*>D	*>D	*>D	*>D	*>D	*>D	*>D
*clefF4	*	*clefGv2	*	*clefGv2	*	*clefG2	*
*k[]	*	*k[]	*	*k[]	*	*k[]	*
*M2/1	*	*M2/1	*	*M2/1	*	*M2/1	*
*met(C|)	*	*met(C|)	*	*met(C|)	*	*met(C|)	*
!!section: Vale, valde decora
!!!OMD: Vale, valde decora
!!LO:TX:X=-40:Z=8:t=[Recte&colon; C mensuration]
0c	Va-	0r	.	0r	.	0c	Va-
=141.	=141	=141.	=141	=141.	=141	=141.	=141
0B	.	0r	.	0r	.	0d	.
=142	=142	=142	=142	=142	=142	=142	=142
0c	.	0r	.	0r	.	[0e	.
=143.	=143	=143.	=143	=143.	=143	=143.	=143
0A	.	0r	.	0r	.	1e]	.
.	.	.	.	.	.	[1f	.
=144	=144	=144	=144	=144	=144	=144	=144
1G	.	0r	.	0r	.	2f/]	.
.	.	.	.	.	.	2e/	.
1A	.	.	.	.	.	1e	.
=145.	=145	=145.	=145	=145.	=145	=145.	=145
1.F	.	0r	.	0r	.	1.d	.
4E\	.	.	.	.	.	2c/	.
4D\	.	.	.	.	.	.	.
=146	=146	=146	=146	=146	=146	=146	=146
0C	-le,	0c	Va-	0r	.	0e	-le,
=147.	=147	=147.	=147	=147.	=147	=147.	=147
0F	val-	0d	.	0r	.	1r	.
.	.	.	.	.	.	1a	val-
=148	=148	=148	=148	=148	=148	=148	=148
1.E	.	0e	.	0r	.	1g	.
.	.	.	.	.	.	1cc	.
2F\	.	.	.	.	.	.	.
=149.	=149	=149.	=149	=149.	=149	=149.	=149
1G	-de	1e	.	0r	.	1b	-de
[1D	de-	[1f	.	.	.	[1a	de-
=150	=150	=150	=150	=150	=150	=150	=150
2D\]	.	2f\]	.	0r	.	2a/]	.
2E\	.	2e\	.	.	.	2g/	.
1C	.	1e	.	.	.	1g	.
=151.	=151	=151.	=151	=151.	=151	=151.	=151
1D	-co-	1.d	.	0r	.	1.f	-co-
1BB	.	.	.	.	.	.	.
.	.	2c\	.	.	.	4e/	.
.	.	.	.	.	.	4d/	.
=152	=152	=152	=152	=152	=152	=152	=152
1C	-ra,	0e	-le,	0r	.	1c	-ra,
[1AA	et-	.	.	.	.	1r	.
=153.	=153	=153.	=153	=153.	=153	=153.	=153
1AA]	.	0r	.	0r	.	1e	et
1BB	.	.	.	.	.	1d	.
=154	=154	=154	=154	=154	=154	=154	=154
1C	-pro	0r	.	0r	.	1e	pro
1D	.	.	.	.	.	1f	.
=155.	=155	=155.	=155	=155.	=155	=155.	=155
1C	no-	0r	.	0r	.	1e	no-
[1F	.	.	.	.	.	[1d	.
=156	=156	=156	=156	=156	=156	=156	=156
1F]	.	0r	.	0r	.	2d/]	.
.	.	.	.	.	.	2c/	.
1E	.	.	.	.	.	[1c	.
=157.	=157	=157.	=157	=157.	=157	=157.	=157
0D	.	0r	.	0r	.	1c]	.
.	.	.	.	.	.	1B	.
=158	=158	=158	=158	=158	=158	=158	=158
[0C	-bis	0r	.	0r	.	0c	-bis
=159.	=159	=159.	=159	=159.	=159	=159.	=159
0C]	.	0r	.	0c	sem-	1r	.
.	.	.	.	.	.	[1cc	sem-
=160	=160	=160	=160	=160	=160	=160	=160
0r	.	0r	.	0e	.	2cc\]	.
.	.	.	.	.	.	2b\	.
.	.	.	.	.	.	1cc	.
=161.	=161	=161.	=161	=161.	=161	=161.	=161
0r	.	0r	.	1f	.	1dd	.
.	.	.	.	1g	.	[1ee	.
=162	=162	=162	=162	=162	=162	=162	=162
0r	.	0r	.	0c	-per	2ee\]	.
.	.	.	.	.	.	2cc\	.
.	.	.	.	.	.	1cc	-per
=163.	=163	=163.	=163	=163.	=163	=163.	=163
0r	.	0r	.	0B	.	1r	.
.	.	.	.	.	.	1dd	Chri-
=164	=164	=164	=164	=164	=164	=164	=164
0r	.	0r	.	1c	Chri-	1cc	.
.	.	.	.	1d	.	2a/	.
.	.	.	.	.	.	[2b\	.
=165.	=165	=165.	=165	=165.	=165	=165.	=165
0r	.	0r	.	1e	.	2b\]	.
.	.	.	.	.	.	2cc\	.
.	.	.	.	2f\	.	1a	.
.	.	.	.	2d\	.	.	.
=166	=166	=166	=166	=166	=166	=166	=166
0r	.	0r	.	2e\	.	1g	-stum
.	.	.	.	1c	.	.	.
.	.	.	.	.	.	1cc	.
.	.	.	.	2B\	.	.	.
=167.	=167	=167.	=167	=167.	=167	=167.	=167
0r	.	0r	.	1A	-stum	1r	.
.	.	.	.	1G	.	1dd	ex-
=168	=168	=168	=168	=168	=168	=168	=168
0r	.	0r	.	1c	ex-	1ee	.
.	.	.	.	1d	.	1ff	.
=169.	=169	=169.	=169	=169.	=169	=169.	=169
0r	.	0r	.	1e	.	1ee	.
.	.	.	.	[1f	-o-	[1dd	-o-
=170	=170	=170	=170	=170	=170	=170	=170
0r	.	0r	.	1f]	.	2dd\]	.
.	.	.	.	.	.	2cc\	.
.	.	.	.	1e	.	[1cc	.
=171.	=171	=171.	=171	=171.	=171	=171.	=171
0r	.	0r	.	0d	.	1cc]	.
.	.	.	.	.	.	1b	.
=172	=172	=172	=172	=172	=172	=172	=172
0r	.	0r	.	[0c	-ra.	0cc	-ra.
=173.	=173	=173.	=173	=173.	=173	=173.	=173
0r	.	0r	.	0c]	.	0r	.
=174	=174	=174	=174	=174	=174	=174	=174
1C	In	[0g	Val-	[0e	In-	[0cc	In
1C	e-	.	.	.	.	.	.
=175.	=175	=175.	=175	=175.	=175	=175.	=175
0C	-ter-	0g_	.	0e]	.	1cc]	.
.	.	.	.	.	.	1cc	e-
=176	=176	=176	=176	=176	=176	=176	=176
0G	.	0g_	.	[0d	-e-	0b	-ter-
=177.	=177	=177.	=177	=177.	=177	=177.	=177
0G	-num	0g]	.	0d_	.	0b	-num
=178	=178	=178	=178	=178	=178	=178	=178
[0D	ne	[0f	.	0d]	.	1a	ne
.	.	.	.	.	.	1a	dam-
=179.	=179	=179.	=179	=179.	=179	=179.	=179
0D_	.	0f_	.	1d	-ter-	1.dd	-ne-
.	.	.	.	[1d	-num...	.	.
.	.	.	.	.	.	2cc\	.
=180	=180	=180	=180	=180	=180	=180	=180
0D]	.	0f_	.	2d\]	.	[0a	-mur,
.	.	.	.	2c\	.	.	.
.	.	.	.	1A	.	.	.
=181.	=181	=181.	=181	=181.	=181	=181.	=181
0F	dam-	0f]	.	1r	.	1a]	.
.	.	.	.	[1c	...mi	1a	mi-
=182	=182	=182	=182	=182	=182	=182	=182
0C	-ne-	0e	-de	0c]	.	0g	.
=183.	=183	=183.	=183	=183.	=183	=183.	=183
0D	.	0d	.	1A	se-	0f	-se-
.	.	.	.	1B	.	.	.
=184	=184	=184	=184	=184	=184	=184	=184
0AA	-mur,	0c	de-	0A	-re-	1e	-re-
.	.	.	.	.	.	1f	.
=185.	=185	=185.	=185	=185.	=185	=185.	=185
1BB-i	mi-	0d	-co-	1G	.	2g/	-re
.	.	.	.	.	.	2f/	.
1BB-i	-se-	.	.	1G	-re	1d	.
=186	=186	=186	=186	=186	=186	=186	=186
1AA	-re-	0c	.	1A	no-	1r	.
1AA	-re	.	.	[1c	.	1a	no-
=187.	=187	=187.	=187	=187.	=187	=187.	=187
0BB-i	no-	0d	.	2c\]	.	3g/V	.
.	.	.	.	.	.	3%2fZ	.
.	.	.	.	2B-i\	.	.	.
.	.	.	.	2.G/	.	3e/V	.
.	.	.	.	.	.	3%2dZ	.
.	.	.	.	4F/	.	.	.
=188	=188	=188	=188	=188	=188	=188	=188
0AA;	-bis.	0e;	-ra,	0A;	-bis.	0c;	-bis.
=189	=189	=189	=189	=189	=189	=189	=189
0r	.	0r	.	1.c	Et	1.cc	Et
.	.	.	.	2d\	.	2b\	.
=190.	=190	=190.	=190	=190.	=190	=190.	=190
1c	Et	0r	.	1e	.	1cc	.
2B\	.	.	.	1f	.	[1dd	.
2A\	.	.	.	.	.	.	.
=191	=191	=191	=191	=191	=191	=191	=191
1G	.	0r	.	1g	.	2dd\]	.
.	.	.	.	.	.	1ee	.
1c	.	.	.	1e	.	.	.
.	.	.	.	.	.	2cc\	.
=192.	=192	=192.	=192	=192.	=192	=192.	=192
0G	.	0r	.	0d	.	2dd\	.
.	.	.	.	.	.	1b	.
.	.	.	.	.	.	2a/	.
=193	=193	=193	=193	=193	=193	=193	=193
[0C	iu-	0r	.	0c	.	1.cc	iu-
.	.	.	.	.	.	2b\	.
=194.	=194	=194.	=194	=194.	=194	=194.	=194
0C]	.	0r	.	1r	.	2a/	.
.	.	.	.	.	.	2g/	.
.	.	.	.	1c	iu-	1a	.
=195	=195	=195	=195	=195	=195	=195	=195
0G	.	0r	.	1d	.	2.b\	.
.	.	.	.	.	.	4g/	.
.	.	.	.	1B	.	[1g	.
=196.	=196	=196.	=196	=196.	=196	=196.	=196
0D	-va,	0r	.	0A	.	2g/]	.
.	.	.	.	.	.	1f#i	.
.	.	.	.	.	.	2e/	.
=197	=197	=197	=197	=197	=197	=197	=197
0d	ut	0r	.	0G	-va,	0g	-va,
=198.	=198	=198.	=198	=198.	=198	=198.	=198
0B	.	0r	.	0r	.	1r	.
.	.	.	.	.	.	[1dd	ut
=199	=199	=199	=199	=199	=199	=199	=199
1G	.	0r	.	1g	ut	2dd\]	.
.	.	.	.	.	.	2b\	.
1A	.	.	.	2e\	.	1cc	.
.	.	.	.	[2f\	.	.	.
=200.	=200	=200.	=200	=200.	=200	=200.	=200
2B\	.	0r	.	2f\]	.	2dd\	.
2G\	.	.	.	2g\	.	2b\	.
1c	.	.	.	2e\	.	2g/	.
.	.	.	.	2c\	.	2a/	.
=201	=201	=201	=201	=201	=201	=201	=201
2B\	.	0r	.	2d\	.	2b\	.
2c\	.	.	.	2e\	.	2.g/	.
2r	.	.	.	1c	.	.	.
.	.	.	.	.	.	4f/	.
2A\	in	.	.	.	.	2e/	.
=202.	=202	=202.	=202	=202.	=202	=202.	=202
2.B\	mor-	0r	.	2d\	.	2d/	.
.	.	.	.	1G	.	2r	.
4c\	.	.	.	.	.	.	.
2d\	.	.	.	.	.	2g/	in
2e\	.	.	.	2c\	in	2e/	.
=203	=203	=203	=203	=203	=203	=203	=203
2c\	.	0r	.	2A/	mor-	2f/	mor-
2d\	.	.	.	2B\	.	2g/	.
2A\	.	.	.	2c\	.	2a/	.
2r	.	.	.	2d\	.	2f/	.
=204.	=204	=204.	=204	=204.	=204	=204.	=204
2G\	.	0r	.	2B\	.	1g	.
2E\	.	.	.	2c\	.	.	.
1F	.	.	.	2r	.	2cc\	.
.	.	.	.	2f\	.	2a/	.
=205	=205	=205	=205	=205	=205	=205	=205
2.G\	.	0r	.	2d\	.	1b	.
.	.	.	.	1e	.	.	.
4F\	.	.	.	.	.	.	.
2E\	.	.	.	.	.	2cc\	.
2D\	.	.	.	2f\	.	[2dd\	.
=206.	=206	=206.	=206	=206.	=206	=206.	=206
2BB/	.	0r	.	1g	.	2dd\]	.
1C	.	.	.	.	.	1ee	.
.	.	.	.	1a	.	.	.
[2F\	.	.	.	.	.	[2cc\	.
=207	=207	=207	=207	=207	=207	=207	=207
2F\]	.	0r	.	1f	.	2cc\]	.
2D\	.	.	.	.	.	1dd	.
2r	.	.	.	1g	.	.	.
[2G\	.	.	.	.	.	[2b\	.
=208.	=208	=208.	=208	=208.	=208	=208.	=208
2G\]	.	0r	.	1e	.	2b\]	.
1C	.	.	.	.	.	1g	.
.	.	.	.	1c	.	.	.
[2A\	-tis	.	.	.	.	[2e/	-tis
=209	=209	=209	=209	=209	=209	=209	=209
2A\]	.	0r	.	1A	.	2e/]	.
2F\	.	.	.	.	.	2f/	.
2.G\	ho-	.	.	2B\	-tis	2d/	.
.	.	.	.	2G/	.	2r	.
4A\	.	.	.	.	.	.	.
=210.	=210	=210.	=210	=210.	=210	=210.	=210
4B\	.	0r	.	2r	.	2g/	ho-
4c\	.	.	.	.	.	.	.
2A\	.	.	.	2c\	ho-	2a/	.
2G\	.	.	.	2d\	.	2b\	.
[2c\	.	.	.	2e\	.	[2g/	.
=211	=211	=211	=211	=211	=211	=211	=211
2c\]	.	0r	.	1c	.	2g/]	.
1F	.	.	.	.	.	1a	.
.	.	.	.	1d	.	.	.
2G\	.	.	.	.	.	2b\	.
=212.	=212	=212.	=212	=212.	=212	=212.	=212
1A	.	0r	.	2c\	.	1cc	.
.	.	.	.	2e\	.	.	.
2r	.	.	.	2f\	.	1dd	.
2G\	.	.	.	[2g\	.	.	.
=213	=213	=213	=213	=213	=213	=213	=213
2E\	.	0r	.	2g\]	.	2ee\	.
1D	.	.	.	2a\	.	1ff	.
.	.	.	.	2f\	.	.	.
2BB/	.	.	.	[2g\	.	2dd\	.
=214.	=214	=214.	=214	=214.	=214	=214.	=214
2.C/	.	0r	.	2g\]	.	1ee	.
.	.	.	.	1c	.	.	.
4D\	.	.	.	.	.	.	.
4E\	.	.	.	.	.	2cc\	.
4F\	.	.	.	.	.	.	.
2D\	.	.	.	2B\	.	2dd\	.
=215	=215	=215	=215	=215	=215	=215	=215
1C	.	0r	.	2.c\	.	2ee\	.
.	.	.	.	.	.	1cc	.
.	.	.	.	4B\	.	.	.
1r	.	.	.	2A/	.	.	.
.	.	.	.	2G/	.	2dd\	.
=216.	=216	=216.	=216	=216.	=216	=216.	=216
1E	.	0r	.	2r	.	2b\	.
.	.	.	.	2c\	.	2cc\	.
2D\	.	.	.	2B\	.	2dd\	.
2C/	.	.	.	2c\	.	2ee\	.
=217	=217	=217	=217	=217	=217	=217	=217
1BB	.	0r	.	1d	.	2ff\	.
.	.	.	.	.	.	2dd\	.
2C/	.	.	.	2c\	.	2ee\	.
2D\	.	.	.	2f\	.	[2dd\	.
=218.	=218	=218.	=218	=218.	=218	=218.	=218
2BB/	.	0r	.	2g\	.	4dd\]	.
.	.	.	.	.	.	4cc\	.
2C/	.	.	.	2e\	.	1cc	.
1G	.	.	.	1d	.	.	.
.	.	.	.	.	.	2b\	.
=219	=219	=219	=219	=219	=219	=219	=219
[0C	-ra	0r	.	[0c	-ra	0cc	-ra
=220.	=220	=220.	=220	=220.	=220	=220.	=220
0C]	.	0r	.	0c]	.	0r	.
=221	=221	=221	=221	=221	=221	=221	=221
*	*	*M3/1	*	*	*	*M3/1	*
*	*	*met(3)	*	*	*	*met(3)	*
!!primary-mensuration: met(3)
*rscale:2/3	*	*	*	*rscale:2/3	*	*	*
0.r	.	0e	et	0.r	.	0g	no-
.	.	[1d	pro	.	.	1a	.
=222.	=222	=222.	=222	=222.	=222	=222.	=222
0.r	.	1d]	.	0.r	.	0b	.
.	.	0e	.	.	.	.	.
.	.	.	.	.	.	1cc	.
=223	=223	=223	=223	=223	=223	=223	=223
0.r	.	1f	no-	0.r	.	1dd	.
.	.	0g	.	.	.	1.ee	.
.	.	.	.	.	.	2cc\	.
=224.	=224	=224.	=224	=224.	=224	=224.	=224
0.r	.	1.e	.	0.r	.	0cc	.
.	.	2c\	.	.	.	.	.
.	.	1d	.	.	.	1b	.
*rscale:1	*	*	*	*	*	*	*
=225	=225	=225	=225	=225	=225	=225	=225
*M3/1	*	*	*	*	*	*	*
*met(3)	*	*	*	*	*	*	*
0.C	no-	0.c	-bis	0.r	.	0.cc	-stra
=226.	=226	=226.	=226	=226.	=226	=226.	=226
0G	.	0d	sem-	0.r	.	0.r	.
1A	.	[1c	-per	.	.	.	.
=227	=227	=227	=227	=227	=227	=227	=227
1F	.	1c]	.	0.r	.	0.r	.
1G	.	0B	.	.	.	.	.
1E	.	.	.	.	.	.	.
=228.	=228	=228.	=228	=228.	=228	=228.	=228
1F	.	1A	Chri-	0.r	.	0.r	.
0G	.	1B	.	.	.	.	.
.	.	1G	.	.	.	.	.
=229	=229	=229	=229	=229	=229	=229	=229
1C	.	0c	.	0.r	.	0.r	.
0D	.	.	.	.	.	.	.
.	.	1B	.	.	.	.	.
=230.	=230	=230.	=230	=230.	=230	=230.	=230
0.C	-stra	0.c	-stum	0.g	sint	0.r	.
=231	=231	=231	=231	=231	=231	=231	=231
*rscale:3/2	*	*rscale:3/2	*	*rscale:1	*	*rscale:3/2	*
3%4F	sint	3%4.r	.	3%4aV	.	[3%4.cc	sint
3%2G	.	.	.	3%2gZ	.	.	.
*rscale:1	*	*rscale:1	*	*	*	*rscale:1	*
=232.	=232	=232.	=232	=232.	=232	=232.	=232
*M2/1	*	*M2/1	*	*	*	*M2/1	*
*met(C)	*	*met(C)	*	*	*	*met(C)	*
0A	.	0c	ex-	1e	.	0cc]	.
.	.	.	.	1f	.	.	.
=233	=233	=233	=233	=233	=233	=233	=233
0G	cor-	[0d	.	0g	cor-	0b	cor-
=234.	=234	=234.	=234	=234.	=234	=234.	=234
0F	.	0d]	.	1a	.	0a	.
.	.	.	.	1f	.	.	.
=235	=235	=235	=235	=235	=235	=235	=235
0E	-da	0e	.	1g	-da	0g	-da
.	.	.	.	1c	.	.	.
=236.	=236	=236.	=236	=236.	=236	=236.	=236
0D	de-	0f	-o-	0d	de-	1r	.
.	.	.	.	.	.	1a	de-
=237	=237	=237	=237	=237	=237	=237	=237
1E	-co-	1g	.	1B	-co-	1g	.
1C	.	1e	.	1c	-ra,	[1cc	-co-
=238.	=238	=238.	=238	=238.	=238	=238.	=238
0G	.	0d	.	1r	.	2cc\]	.
.	.	.	.	.	.	1b	.
.	.	.	.	1d	no-	.	.
.	.	.	.	.	.	2a/	.
=239	=239	=239	=239	=239	=239	=239	=239
[0C	-ra,	0c	-ra,	2e\	.	0cc	-ra,
.	.	.	.	2f\	.	.	.
.	.	.	.	[1g	.	.	.
=240.	=240	=240.	=240	=240.	=240	=240.	=240
0C]	.	0e	pro	2g\]	.	1r	.
.	.	.	.	2e\	.	.	.
.	.	.	.	2g\	.	1cc	no-
.	.	.	.	2f\	.	.	.
=241	=241	=241	=241	=241	=241	=241	=241
0r	.	1f	no-	1d	.	1dd	.
.	.	1g	.	1c	.	[1ee	.
=242.	=242	=242.	=242	=242.	=242	=242.	=242
0A	no-	0c	-bis	1e	.	1ee]	.
.	.	.	.	2.f\	.	1cc	.
.	.	.	.	4e\	.	.	.
=243	=243	=243	=243	=243	=243	=243	=243
1G	.	1B	sem-	1g	.	1dd	.
1A	.	1c	.	1e	.	1cc	.
=244.	=244	=244.	=244	=244.	=244	=244.	=244
1F	.	0d	-per	1.f	.	1a	.
1G	.	.	.	.	.	[1b	.
.	.	.	.	[2d\	.	.	.
=245	=245	=245	=245	=245	=245	=245	=245
1Bn	.	1G	Chri-	2d\]	.	1b]	.
.	.	.	.	2g\	.	.	.
1A	.	1A	.	2f#i\	.	1cc	.
.	.	.	.	2e\	.	.	.
=246.	=246	=246.	=246	=246.	=246	=246.	=246
1.G	-stra	1B	.	1g	-stra	0dd	-stra
.	.	[1G	.	2r	.	.	.
2F\	.	.	.	2d\	sint	.	.
=247	=247	=247	=247	=247	=247	=247	=247
1E	sint	1G]	.	2e\	.	1g	sint
.	.	.	.	2c\	.	.	.
1D	.	1F	.	2d\	.	1a	.
.	.	.	.	2f\	.	.	.
=248.	=248	=248.	=248	=248.	=248	=248.	=248
2r	.	1G	.	0e	cor-	1b	cor-
1E	cor-	.	.	.	.	.	.
.	.	1c	.	.	.	[1g	.
2F\	.	.	.	.	.	.	.
=249	=249	=249	=249	=249	=249	=249	=249
1G	-da,	2B\	.	[0d	-da	1g]	.
.	.	2G/	.	.	.	.	.
1D	.	1A	.	.	.	1f#i	.
=250.	=250	=250.	=250	=250.	=250	=250.	=250
0r	.	0G	-stum	0d]	.	0g	-da,
=251	=251	=251	=251	=251	=251	=251	=251
1.A	cor-	1.c	ex-	0r	.	1r	.
.	.	.	.	.	.	1cc	cor-
2G\	.	2d\	.	.	.	.	.
=252.	=252	=252.	=252	=252.	=252	=252.	=252
1E	.	1e	.	1r	.	2b\	.
.	.	.	.	.	.	2g/	.
1D	.	1f	.	1d	cor-	1a	.
=253	=253	=253	=253	=253	=253	=253	=253
1E	-da	1g	-o-	1B	.	0g	-da
[1C	.	[1e	.	[1c	-da	.	.
=254.	=254	=254.	=254	=254.	=254	=254.	=254
1C]	.	2e\]	.	1c]	.	1.cc	de-
.	.	2c\	.	.	.	.	.
[1F	de-	[1c	.	[1A	de-	.	.
.	.	.	.	.	.	2b\	.
=255	=255	=255	=255	=255	=255	=255	=255
1F]	.	1c]	.	2A/]	.	2cc\	-co-
.	.	.	.	2B\	.	2dd\	.
1E	.	1g	.	2c\	.	2ee\	.
.	.	.	.	2B\	.	4dd\	.
.	.	.	.	.	.	4ee\	.
=256.	=256	=256.	=256	=256.	=256	=256.	=256
0D	-co-	1a	.	[0d	-co-	1.ff	.
.	.	1f	.	.	.	.	.
.	.	.	.	.	.	2ee\	.
=257	=257	=257	=257	=257	=257	=257	=257
1BB	.	1g	.	1d]	.	2dd\	.
.	.	.	.	.	.	2cc\	.
1C	.	1e	.	1G	-ra,	[1cc	.
=258.	=258	=258.	=258	=258.	=258	=258.	=258
0G	.	0d	.	1r	.	2cc\]	.
.	.	.	.	.	.	1b	.
.	.	.	.	[1g	de-	.	.
.	.	.	.	.	.	2a/	.
=259	=259	=259	=259	=259	=259	=259	=259
[0Cl	-ra.	[0cl	-ra.	1g]	.	[0ccl	-ra.
.	.	.	.	1g	-co-	.	.
=260.	=260	=260.	=260	=260.	=260	=260.	=260
0C_	.	0c_	.	1.e	-ra.	0cc_	.
.	.	.	.	2f\	.	.	.
=261	=261	=261	=261	=261	=261	=261	=261
0C]	.	0c]	.	0gl	.	0cc]	.
*	*	*	*	*rscale:1	*	*	*
==	==	==	==	==	==	==	==
*-	*-	*-	*-	*-	*-	*-	*-
!!!RDF**kern: l=long note in original notation
!!!RDF**kern: i=editorial accidental
!!!RDF**kern: V=start of tuplet marker
!!!RDF**kern: Z=end of tuplet marker
!!!ENC:	Alejandro Planchart
!!!END:	2014/07/25/
!!!EED:	Alejandro Planchart, Jesse Rodin
!!!EEV:	2014/07/28/
!!!ONB:	Translated from SCORE and edited on 2014/07/28/ by Craig Sapp
!!!SMS: Ed. J. Rodin based on edition by A. Planchart
!!muse2ps: C^@{COM}\n@{SMS}^i2I150v85,85,85,130c160
